!!!COM: Bach, Johann Sebastian
!!!OPR: Joh. Seb. Bachs vierstimmige Choralgesänge
!!!XEN: Four-part Chorales
!!!OTL: 105. Jesu, meine Freude
!!!SCT: BWV 358
!!!SCA: Thematisch-systematisches Verzeichnis der musikalischen Werke Johann Sebastian Bach: Bach-Werke-Verzeichnis (Schmieder)
!!!YOR: Bach Gesellschaft Edition xxxix
!!!ENC: Steven Rasmussen
!!!CDT: 1685/3//-1750/7/28/
!!!OCY: Deutschland
!!!YEC: Copyright (c) 1994, 2000 Center for Computer Assisted Research in the Humanities
!!!YEM: Rights to all derivative editions reserved
!!!YEN: United States of America
**kern	**silbe	**kern	**silbe	**kern	**kern	**silbe
*I:[BASSO]	*I:[BASSO]	*I:[TENORE]	*I:[TENORE]	*I:[ALTO]	*I:[SOPRANO]	*I:[SOPRANO]
*>[A,A,B]	*	*>[A,A,B]	*	*>[A,A,B]	*>[A,A,B]	*
*>A	*	*>A	*	*>A	*>A	*
*clefF4	*	*clefGv2	*	*clefG2	*clefG2	*
*k[b-]	*	*k[b-]	*	*k[b-]	*k[b-]	*
*d:	*	*d:	*	*d:	*d:	*
*M4/4	*	*M4/4	*	*M4/4	*M4/4	*
=1-	=1-	=1-	=1-	=1-	=1-	=1-
8DL	.	8FL	.	4d	4a	Je-ach
8EJ	.	8GJ	.	.	.	.
4F	.	4A	.	4d	4a	-su,wie
4C#	.	8B-L	.	4e	4g	mei-lang',
.	.	8AJ	.	.	.	.
4D	.	4A	.	4d	4f	-neach
=2	=2	=2	=2	=2	=2	=2
4GG	.	4B-	.	4d	2e	Freu-lan-
4AA	.	8AL	.	4c#	.	.
.	.	8GJ	.	.	.	.
2DD;	.	2F;	.	2A;	2d;	-de,-ge
=3	=3	=3	=3	=3	=3	=3
8DL	.	8fL	.	4d	4a	mei-ist
8EJ	.	8eJ	.	.	.	.
4F	.	4d	.	4G	4bn	-nesdem
8EL	.	4c	.	8gL	4cc	Her-Her-
8FJ	.	.	.	8fJ	.	.
4G	.	4c#	.	4e	4a	-zens-zen
=4	=4	=4	=4	=4	=4	=4
8F#L	.	8dL	.	4a	2dd	Wei-ban-
8G#J	.	8eJ	.	.	.	.
4G#	.	4f	.	4bn	.	.
2A;	.	2e;	.	2a;	2cc#;	-de,-ge,
=5	=5	=5	=5	=5	=5	=5
4B-	.	4d	.	4g	8ddL	Je-und
.	.	.	.	.	8eeJ	.
8AL	.	4d	.	8aL	4ff	-su,ver-
8GJ	.	.	.	8b-J	.	.
4A	.	4d	.	8gL	4ee	mei--langt
.	.	.	.	8b-J	.	.
4AA	.	4c#	.	8aL	4ee	-nenach
.	.	.	.	8gJ	.	.
=6	=6	=6	=6	=6	=6	=6
1D;	.	1A;	.	1f;	1dd;	Zier,dir.
=7:|!	=7:|!	=7:|!	=7:|!	=7:|!	=7:|!	=7:|!
*>B	*	*>B	*	*>B	*>B	*
8DL	.	4d	.	4f	4a	Got-
8EJ	.	.	.	.	.	.
4F	.	4c	.	8fL	4a	-tes
.	.	.	.	8e-J	.	.
4G	.	8B-L	.	8dL	4b-	Lamm,
.	.	8cJ	.	8enJ	.	.
8DL	.	4d	.	4f	4a	mein
8CJ	.	.	.	.	.	.
=8	=8	=8	=8	=8	=8	=8
8BB-L	.	4d	.	4f	4g	BrÃ¤u-
8GGJ	.	.	.	.	.	.
4C	.	8cL	.	4e	4g	-ti-
.	.	8B-J	.	.	.	.
2FF;	.	2A;	.	2c;	2f;	-gam,
=9	=9	=9	=9	=9	=9	=9
4F	.	4A	.	4c	4a	au-
8EL	.	8GL	.	4f	4bn	-sser
8DJ	.	8FJ	.	.	.	.
4E	.	4G	.	8eL	8ccL	dir
.	.	.	.	8dJ	8bJ	.
4F	.	4A	.	4c	4a	soll
=10	=10	=10	=10	=10	=10	=10
4BBn	mir	8A	mir	4f	4dd	mir
.	.	8G#	auf	.	.	.
8CL	auf	2A	Er-	8eL	8ccL	auf
8DJ	.	.	.	8fJ	8bnJ	.
2E	Er-	.	.	4.e	2b	Er-
.	.	4G#	.	.	.	.
.	.	.	.	8d	.	.
=11	=11	=11	=11	=11	=11	=11
2AA;	-den	2A;	-den	2c#;	2a;	-den
8DL	.	8FL	.	4d	4a	nichts
8EJ	.	8GJ	.	.	.	.
4F	.	4A	.	8dL	4a	sonst
.	.	.	.	8c#J	.	.
=12	=12	=12	=12	=12	=12	=12
8BBnL	.	8DL	.	8dL	4g	lie-
8C#J	.	8AJ	.	8eJ	.	.
4D	.	4A	.	8eL	4f	-bers
.	.	.	.	8dJ	.	.
4GG#	.	8BnL	.	8dL	2e	wer-
.	.	8E	.	16c#L	.	.
.	.	.	.	16BnJJ	.	.
4AA	.	8A	.	4c#	.	.
.	.	8GJ	.	.	.	.
=13	=13	=13	=13	=13	=13	=13
1DD;	.	1F#;	.	1A;	1d;	-den.
==|!	==|!	==|!	==|!	==|!	==|!	==|!
*-	*-	*-	*-	*-	*-	*-
!!!RWG: Key is interpreted using the Humdrum key tool.
!!!URL-pdf: https://s9.imslp.org/files/imglnks/usimg/6/6b/IMSLP24489-PMLP09471-CCARH_Bach_Chorales.pdf#page=74 Musedata edition
!!!URL-pdf: https://s9.imslp.org/files/imglnks/usimg/7/7a/IMSLP04155-Bach_-_BGA_253-438.pdf#page=57 	Bach-Gesellschaft Ausgabe, Band 39 (pp.175-276) Leipzig: Breitkopf und Härtel, 1892. Plate B.W. XXXIX.
!!!END: 1994/07/08
!!!EMD: Converted from MuseData to Humdrum Dec 19, 2000, by Andreas Kornstaedt using muse2kern.
!!!EED: Craig Stuart Sapp
!!!EEV: 2024/03/31
!!!filter-keyboard: satb2gs
